Ben's - 04 - Warm Curves/12   - Apricot + Bright Wash.lrtemplate
s = {
	id = "D0278E6D-6DF6-473C-A153-340C70BF8912",
	internalName = "12   - Apricot + Bright Wash",
	title = "12   - Apricot + Bright Wash",
	type = "Develop",
	value = {
		settings = {
			EnableSplitToning = true,
			ParametricDarks = 0,
			ParametricHighlightSplit = 75,
			ParametricHighlights = 0,
			ParametricLights = 0,
			ParametricMidtoneSplit = 50,
			ParametricShadowSplit = 25,
			ParametricShadows = 0,
			ProcessVersion = "6.7",
			SplitToningBalance = 0,
			SplitToningHighlightHue = 41,
			SplitToningHighlightSaturation = 10,
			SplitToningShadowHue = 41,
			SplitToningShadowSaturation = 32,
			ToneCurveName2012 = "Custom",
			ToneCurvePV2012 = {
				0,
				34,
				255,
				255,
			},
			ToneCurvePV2012Blue = {
				0,
				0,
				255,
				255,
			},
			ToneCurvePV2012Green = {
				0,
				0,
				255,
				255,
			},
			ToneCurvePV2012Red = {
				0,
				0,
				255,
				255,
			},
		},
		uuid = "14A26AE5-EF4C-4F88-ADEC-472B57B4612E",
	},
	version = 0,
}
