Ben's - 04 - Warm Curves/14   - Warm Cross + Bright Wash.lrtemplate
s = {
	id = "ECBC3CBD-250C-4857-B2E6-F79D00A7170C",
	internalName = "14   - Warm Cross + Bright Wash",
	title = "14   - Warm Cross + Bright Wash",
	type = "Develop",
	value = {
		settings = {
			EnableSplitToning = true,
			ParametricDarks = 0,
			ParametricHighlightSplit = 75,
			ParametricHighlights = 0,
			ParametricLights = 0,
			ParametricMidtoneSplit = 50,
			ParametricShadowSplit = 25,
			ParametricShadows = 0,
			ProcessVersion = "6.7",
			SplitToningBalance = 0,
			SplitToningHighlightHue = 337,
			SplitToningHighlightSaturation = 19,
			SplitToningShadowHue = 25,
			SplitToningShadowSaturation = 19,
			ToneCurveName2012 = "Custom",
			ToneCurvePV2012 = {
				0,
				34,
				255,
				255,
			},
			ToneCurvePV2012Blue = {
				0,
				0,
				63,
				75,
				192,
				175,
				255,
				255,
			},
			ToneCurvePV2012Green = {
				0,
				0,
				62,
				52,
				190,
				208,
				255,
				255,
			},
			ToneCurvePV2012Red = {
				0,
				0,
				64,
				45,
				193,
				209,
				255,
				255,
			},
		},
		uuid = "60971030-5223-49C7-8C52-914D134E0DC3",
	},
	version = 0,
}
