Ben's - 04 - Warm Curves/21   - Amber + Neutral Wash.lrtemplate
s = {
	id = "225AB1C2-F44F-4276-8E2E-3AE56DB7A1E3",
	internalName = "21   - Amber + Neutral Wash",
	title = "21   - Amber + Neutral Wash",
	type = "Develop",
	value = {
		settings = {
			EnableSplitToning = true,
			ParametricDarks = 0,
			ParametricHighlightSplit = 75,
			ParametricHighlights = 0,
			ParametricLights = 0,
			ParametricMidtoneSplit = 50,
			ParametricShadowSplit = 25,
			ParametricShadows = 0,
			ProcessVersion = "6.7",
			SplitToningBalance = 0,
			SplitToningHighlightHue = 60,
			SplitToningHighlightSaturation = 10,
			SplitToningShadowHue = 60,
			SplitToningShadowSaturation = 32,
			ToneCurveName2012 = "Custom",
			ToneCurvePV2012 = {
				0,
				34,
				255,
				226,
			},
			ToneCurvePV2012Blue = {
				0,
				0,
				255,
				255,
			},
			ToneCurvePV2012Green = {
				0,
				0,
				255,
				255,
			},
			ToneCurvePV2012Red = {
				0,
				0,
				255,
				255,
			},
		},
		uuid = "5D321B2F-80D1-43A9-904E-CB2175B62431",
	},
	version = 0,
}
