Ben's - 04 - Warm Curves/24   - Warm Cross + Neutral Wash.lrtemplate
s = {
	id = "943D80CB-028A-45D1-A2F2-2FE3BD4472EA",
	internalName = "24   - Warm Cross + Neutral Wash",
	title = "24   - Warm Cross + Neutral Wash",
	type = "Develop",
	value = {
		settings = {
			EnableSplitToning = true,
			ParametricDarks = 0,
			ParametricHighlightSplit = 75,
			ParametricHighlights = 0,
			ParametricLights = 0,
			ParametricMidtoneSplit = 50,
			ParametricShadowSplit = 25,
			ParametricShadows = 0,
			ProcessVersion = "6.7",
			SplitToningBalance = 0,
			SplitToningHighlightHue = 337,
			SplitToningHighlightSaturation = 20,
			SplitToningShadowHue = 25,
			SplitToningShadowSaturation = 20,
			ToneCurveName2012 = "Custom",
			ToneCurvePV2012 = {
				0,
				34,
				255,
				229,
			},
			ToneCurvePV2012Blue = {
				0,
				0,
				63,
				75,
				192,
				175,
				255,
				255,
			},
			ToneCurvePV2012Green = {
				0,
				0,
				62,
				52,
				190,
				208,
				255,
				255,
			},
			ToneCurvePV2012Red = {
				0,
				0,
				64,
				45,
				193,
				209,
				255,
				255,
			},
		},
		uuid = "09EB91FD-80D6-4A41-B7E2-0432A750F335",
	},
	version = 0,
}
