Ben's - 04 - Warm Curves/32   - Apricot + Neutral Punch.lrtemplate
s = {
	id = "041AAE3E-03F9-4C3E-8A54-BEFE2E3E4408",
	internalName = "32   - Apricot + Neutral Punch",
	title = "32   - Apricot + Neutral Punch",
	type = "Develop",
	value = {
		settings = {
			EnableSplitToning = true,
			ParametricDarks = 0,
			ParametricHighlightSplit = 75,
			ParametricHighlights = 0,
			ParametricLights = 0,
			ParametricMidtoneSplit = 50,
			ParametricShadowSplit = 25,
			ParametricShadows = 0,
			ProcessVersion = "6.7",
			SplitToningBalance = 0,
			SplitToningHighlightHue = 41,
			SplitToningHighlightSaturation = 10,
			SplitToningShadowHue = 41,
			SplitToningShadowSaturation = 32,
			ToneCurveName2012 = "Custom",
			ToneCurvePV2012 = {
				26,
				0,
				229,
				255,
			},
			ToneCurvePV2012Blue = {
				0,
				0,
				255,
				255,
			},
			ToneCurvePV2012Green = {
				0,
				0,
				255,
				255,
			},
			ToneCurvePV2012Red = {
				0,
				0,
				255,
				255,
			},
		},
		uuid = "9AEF14FC-3842-443F-BBD4-2AB39D17963D",
	},
	version = 0,
}
