Ben's - 04 - Warm Curves/34   - Warm Cross + Neutral Punch.lrtemplate
s = {
	id = "09B421D8-946E-41E2-AF75-D713F815C9B6",
	internalName = "34   - Warm Cross + Neutral Punch",
	title = "34   - Warm Cross + Neutral Punch",
	type = "Develop",
	value = {
		settings = {
			EnableSplitToning = true,
			ParametricDarks = 0,
			ParametricHighlightSplit = 75,
			ParametricHighlights = 0,
			ParametricLights = 0,
			ParametricMidtoneSplit = 50,
			ParametricShadowSplit = 25,
			ParametricShadows = 0,
			ProcessVersion = "6.7",
			SplitToningBalance = 0,
			SplitToningHighlightHue = 337,
			SplitToningHighlightSaturation = 20,
			SplitToningShadowHue = 25,
			SplitToningShadowSaturation = 20,
			ToneCurveName2012 = "Custom",
			ToneCurvePV2012 = {
				28,
				0,
				228,
				255,
			},
			ToneCurvePV2012Blue = {
				0,
				0,
				63,
				75,
				192,
				175,
				255,
				255,
			},
			ToneCurvePV2012Green = {
				0,
				0,
				62,
				52,
				190,
				208,
				255,
				255,
			},
			ToneCurvePV2012Red = {
				0,
				0,
				64,
				45,
				193,
				209,
				255,
				255,
			},
		},
		uuid = "396004EB-136E-49B8-97D1-E2516F2D9561",
	},
	version = 0,
}
