Ben's - 05 - Antique Curves/23   - Bronze B&W + Neutral Wash.lrtemplate
s = {
	id = "B2BD8639-5087-4384-A698-567731F9088E",
	internalName = "23   - Bronze B&W + Neutral Wash",
	title = "23   - Bronze B&W + Neutral Wash",
	type = "Develop",
	value = {
		settings = {
			ConvertToGrayscale = false,
			EnableSplitToning = true,
			ParametricDarks = 0,
			ParametricHighlightSplit = 75,
			ParametricHighlights = 0,
			ParametricLights = 0,
			ParametricMidtoneSplit = 50,
			ParametricShadowSplit = 25,
			ParametricShadows = 0,
			ProcessVersion = "6.7",
			Saturation = -100,
			SplitToningBalance = 0,
			SplitToningHighlightHue = 23,
			SplitToningHighlightSaturation = 15,
			SplitToningShadowHue = 23,
			SplitToningShadowSaturation = 25,
			ToneCurveName2012 = "Custom",
			ToneCurvePV2012 = {
				0,
				34,
				255,
				226,
			},
			ToneCurvePV2012Blue = {
				0,
				0,
				255,
				255,
			},
			ToneCurvePV2012Green = {
				0,
				0,
				255,
				255,
			},
			ToneCurvePV2012Red = {
				0,
				0,
				255,
				255,
			},
		},
		uuid = "A3B9EDFF-820A-4AFA-B4BE-309FC27D033E",
	},
	version = 0,
}
