Ben's - 05 - Antique Curves/31   - B&W + Neutral Punch.lrtemplate
s = {
	id = "70F2E273-08F7-4EC0-8260-A57149956171",
	internalName = "31   - B&W + Neutral Punch",
	title = "31   - B&W + Neutral Punch",
	type = "Develop",
	value = {
		settings = {
			ConvertToGrayscale = false,
			EnableSplitToning = true,
			ParametricDarks = 0,
			ParametricHighlightSplit = 75,
			ParametricHighlights = 0,
			ParametricLights = 0,
			ParametricMidtoneSplit = 50,
			ParametricShadowSplit = 25,
			ParametricShadows = 0,
			ProcessVersion = "6.7",
			Saturation = -100,
			SplitToningBalance = 0,
			SplitToningHighlightHue = 0,
			SplitToningHighlightSaturation = 0,
			SplitToningShadowHue = 0,
			SplitToningShadowSaturation = 0,
			ToneCurveName2012 = "Custom",
			ToneCurvePV2012 = {
				26,
				0,
				229,
				255,
			},
			ToneCurvePV2012Blue = {
				0,
				0,
				255,
				255,
			},
			ToneCurvePV2012Green = {
				0,
				0,
				255,
				255,
			},
			ToneCurvePV2012Red = {
				0,
				0,
				255,
				255,
			},
		},
		uuid = "4491A606-BCB3-4A55-9DCC-A2A373D45F34",
	},
	version = 0,
}
