Ben's - 05 - Antique Curves/44   - Azure B&W + Dark Wash.lrtemplate
s = {
	id = "2BB11999-F131-4FF8-9734-FD8ABD78C9FB",
	internalName = "44   - Azure B&W + Dark Wash",
	title = "44   - Azure B&W + Dark Wash",
	type = "Develop",
	value = {
		settings = {
			ConvertToGrayscale = false,
			EnableSplitToning = true,
			ParametricDarks = 0,
			ParametricHighlightSplit = 75,
			ParametricHighlights = 0,
			ParametricLights = 0,
			ParametricMidtoneSplit = 50,
			ParametricShadowSplit = 25,
			ParametricShadows = 0,
			ProcessVersion = "6.7",
			Saturation = -100,
			SplitToningBalance = 0,
			SplitToningHighlightHue = 238,
			SplitToningHighlightSaturation = 15,
			SplitToningShadowHue = 238,
			SplitToningShadowSaturation = 25,
			ToneCurveName2012 = "Custom",
			ToneCurvePV2012 = {
				0,
				0,
				255,
				226,
			},
			ToneCurvePV2012Blue = {
				0,
				0,
				255,
				255,
			},
			ToneCurvePV2012Green = {
				0,
				0,
				255,
				255,
			},
			ToneCurvePV2012Red = {
				0,
				0,
				255,
				255,
			},
		},
		uuid = "58791656-B794-44A8-99BC-BEE359341ED9",
	},
	version = 0,
}
