Ben's - 02 - Neutral Curves/13   - Desaturated.lrtemplate
s = {
	id = "65676233-2958-4B61-AF75-AEF072BA2A0A",
	internalName = "03   - Desaturated",
	title = "13   - Desaturated",
	type = "Develop",
	value = {
		settings = {
			ConvertToGrayscale = false,
			ParametricDarks = 0,
			ParametricHighlightSplit = 75,
			ParametricHighlights = 0,
			ParametricLights = 0,
			ParametricMidtoneSplit = 50,
			ParametricShadowSplit = 25,
			ParametricShadows = 0,
			ProcessVersion = "6.7",
			Saturation = -40,
			ToneCurveName2012 = "Custom",
			ToneCurvePV2012 = {
				0,
				34,
				255,
				255,
			},
			ToneCurvePV2012Blue = {
				0,
				0,
				255,
				255,
			},
			ToneCurvePV2012Green = {
				0,
				0,
				255,
				255,
			},
			ToneCurvePV2012Red = {
				0,
				0,
				255,
				255,
			},
			Vibrance = 0,
		},
		uuid = "04432820-26B0-4352-87E3-1D2AFFC7B93B",
	},
	version = 0,
}
