Ben's - 02 - Neutral Curves/14   - Desaturated Cross Process.lrtemplate
s = {
	id = "A69284F2-D0A3-4057-A34C-D7600153B46C",
	internalName = "04   - Desaturated Cross Process",
	title = "14   - Desaturated Cross Process",
	type = "Develop",
	value = {
		settings = {
			ConvertToGrayscale = false,
			ParametricDarks = 0,
			ParametricHighlightSplit = 75,
			ParametricHighlights = 0,
			ParametricLights = 0,
			ParametricMidtoneSplit = 50,
			ParametricShadowSplit = 25,
			ParametricShadows = 0,
			ProcessVersion = "6.7",
			Saturation = -40,
			ToneCurveName2012 = "Custom",
			ToneCurvePV2012 = {
				0,
				34,
				255,
				255,
			},
			ToneCurvePV2012Blue = {
				0,
				0,
				63,
				75,
				192,
				175,
				255,
				255,
			},
			ToneCurvePV2012Green = {
				0,
				0,
				62,
				52,
				190,
				208,
				255,
				255,
			},
			ToneCurvePV2012Red = {
				0,
				0,
				64,
				45,
				193,
				209,
				255,
				255,
			},
			Vibrance = 0,
		},
		uuid = "90925BB3-04F7-468E-8CE6-FB332B7F0FB1",
	},
	version = 0,
}
