Ben's - 02 - Neutral Curves/22   - Reverse Saturated.lrtemplate
s = {
	id = "B993E2FC-F396-4B1A-AEC9-26CB2619CAA3",
	internalName = "22   - Reverse Saturated",
	title = "22   - Reverse Saturated",
	type = "Develop",
	value = {
		settings = {
			ConvertToGrayscale = false,
			ParametricDarks = 0,
			ParametricHighlightSplit = 75,
			ParametricHighlights = 0,
			ParametricLights = 0,
			ParametricMidtoneSplit = 50,
			ParametricShadowSplit = 25,
			ParametricShadows = 0,
			ProcessVersion = "6.7",
			Saturation = 0,
			ToneCurveName2012 = "Custom",
			ToneCurvePV2012 = {
				0,
				34,
				255,
				223,
			},
			ToneCurvePV2012Blue = {
				0,
				0,
				255,
				255,
			},
			ToneCurvePV2012Green = {
				0,
				0,
				255,
				255,
			},
			ToneCurvePV2012Red = {
				0,
				0,
				255,
				255,
			},
			Vibrance = 15,
		},
		uuid = "ABC27276-17F8-4262-880D-4777B8094DAD",
	},
	version = 0,
}
