Ben's - 02 - Neutral Curves/23   - Desaturated.lrtemplate
s = {
	id = "A72A4ACD-833B-4684-9144-4A5A5E15F848",
	internalName = "13   - Desaturated",
	title = "23   - Desaturated",
	type = "Develop",
	value = {
		settings = {
			ConvertToGrayscale = false,
			ParametricDarks = 0,
			ParametricHighlightSplit = 75,
			ParametricHighlights = 0,
			ParametricLights = 0,
			ParametricMidtoneSplit = 50,
			ParametricShadowSplit = 25,
			ParametricShadows = 0,
			ProcessVersion = "6.7",
			Saturation = -40,
			ToneCurveName2012 = "Custom",
			ToneCurvePV2012 = {
				0,
				34,
				255,
				224,
			},
			ToneCurvePV2012Blue = {
				0,
				0,
				255,
				255,
			},
			ToneCurvePV2012Green = {
				0,
				0,
				255,
				255,
			},
			ToneCurvePV2012Red = {
				0,
				0,
				255,
				255,
			},
			Vibrance = 0,
		},
		uuid = "AEF363E7-7067-48E6-9C16-C60D04B950E7",
	},
	version = 0,
}
