Ben's - 07 - EXTRAS/101   - Tilt Shift Treatment.lrtemplate
s = {
	id = "6A8CDDAF-D66A-4033-9E19-22079D265C17",
	internalName = "Tilt Shift Treatment",
	title = "101   - Tilt Shift Treatment",
	type = "Develop",
	value = {
		settings = {
			Blacks2012 = 10,
			Contrast2012 = 60,
			ConvertToGrayscale = false,
			Highlights2012 = -25,
			ProcessVersion = "6.7",
			Saturation = 50,
			Shadows2012 = 25,
			Whites2012 = -25,
		},
		uuid = "00622483-364E-45CC-ABAA-90D489EB1C24",
	},
	version = 0,
}
