Ben's - 03 - Cool Curves/13   - Violet + Bright Wash.lrtemplate
s = {
	id = "8F62F926-95D9-44B6-8AD2-91A215E82478",
	internalName = "13   - Violet + Bright Wash",
	title = "13   - Violet + Bright Wash",
	type = "Develop",
	value = {
		settings = {
			EnableSplitToning = true,
			ParametricDarks = 0,
			ParametricHighlightSplit = 75,
			ParametricHighlights = 0,
			ParametricLights = 0,
			ParametricMidtoneSplit = 50,
			ParametricShadowSplit = 25,
			ParametricShadows = 0,
			ProcessVersion = "6.7",
			SplitToningBalance = 0,
			SplitToningHighlightHue = 276,
			SplitToningHighlightSaturation = 2,
			SplitToningShadowHue = 274,
			SplitToningShadowSaturation = 32,
			ToneCurveName2012 = "Custom",
			ToneCurvePV2012 = {
				0,
				34,
				255,
				255,
			},
			ToneCurvePV2012Blue = {
				0,
				0,
				255,
				255,
			},
			ToneCurvePV2012Green = {
				0,
				0,
				255,
				255,
			},
			ToneCurvePV2012Red = {
				0,
				0,
				255,
				255,
			},
		},
		uuid = "FE1CF6E4-4B9B-49F0-8345-0D39373527EC",
	},
	version = 0,
}
