Ben's - 03 - Cool Curves/22   - Azure + Neutral Wash.lrtemplate
s = {
	id = "89E5AE5A-E5B5-48E3-B342-2B7BF1CA01F6",
	internalName = "22   - Azure + Neutral Wash",
	title = "22   - Azure + Neutral Wash",
	type = "Develop",
	value = {
		settings = {
			EnableSplitToning = true,
			ParametricDarks = 0,
			ParametricHighlightSplit = 75,
			ParametricHighlights = 0,
			ParametricLights = 0,
			ParametricMidtoneSplit = 50,
			ParametricShadowSplit = 25,
			ParametricShadows = 0,
			ProcessVersion = "6.7",
			SplitToningBalance = 0,
			SplitToningHighlightHue = 237,
			SplitToningHighlightSaturation = 2,
			SplitToningShadowHue = 239,
			SplitToningShadowSaturation = 32,
			ToneCurveName2012 = "Custom",
			ToneCurvePV2012 = {
				0,
				34,
				255,
				225,
			},
			ToneCurvePV2012Blue = {
				0,
				0,
				255,
				255,
			},
			ToneCurvePV2012Green = {
				0,
				0,
				255,
				255,
			},
			ToneCurvePV2012Red = {
				0,
				0,
				255,
				255,
			},
		},
		uuid = "A252D1A2-3091-45ED-8E8A-AF73D8F2234D",
	},
	version = 0,
}
