Ben's - 03 - Cool Curves/23   - Violet + Neutral Wash.lrtemplate
s = {
	id = "32ACD43F-48E3-4876-9656-1CFCA4A5EC9C",
	internalName = "23   - Violet + Neutral Wash",
	title = "23   - Violet + Neutral Wash",
	type = "Develop",
	value = {
		settings = {
			EnableSplitToning = true,
			ParametricDarks = 0,
			ParametricHighlightSplit = 75,
			ParametricHighlights = 0,
			ParametricLights = 0,
			ParametricMidtoneSplit = 50,
			ParametricShadowSplit = 25,
			ParametricShadows = 0,
			ProcessVersion = "6.7",
			SplitToningBalance = 0,
			SplitToningHighlightHue = 276,
			SplitToningHighlightSaturation = 2,
			SplitToningShadowHue = 274,
			SplitToningShadowSaturation = 32,
			ToneCurveName2012 = "Custom",
			ToneCurvePV2012 = {
				0,
				34,
				255,
				226,
			},
			ToneCurvePV2012Blue = {
				0,
				0,
				255,
				255,
			},
			ToneCurvePV2012Green = {
				0,
				0,
				255,
				255,
			},
			ToneCurvePV2012Red = {
				0,
				0,
				255,
				255,
			},
		},
		uuid = "70B271AF-E34B-4DC1-A176-37454CF28AE3",
	},
	version = 0,
}
