Ben's - 03 - Cool Curves/32   - Azure + Neutral Punch.lrtemplate
s = {
	id = "4FED5F41-377E-4D73-9F79-4ABA57954CCD",
	internalName = "32   - Azure + Neutral Punch",
	title = "32   - Azure + Neutral Punch",
	type = "Develop",
	value = {
		settings = {
			EnableSplitToning = true,
			ParametricDarks = 0,
			ParametricHighlightSplit = 75,
			ParametricHighlights = 0,
			ParametricLights = 0,
			ParametricMidtoneSplit = 50,
			ParametricShadowSplit = 25,
			ParametricShadows = 0,
			ProcessVersion = "6.7",
			SplitToningBalance = 0,
			SplitToningHighlightHue = 237,
			SplitToningHighlightSaturation = 2,
			SplitToningShadowHue = 239,
			SplitToningShadowSaturation = 32,
			ToneCurveName2012 = "Custom",
			ToneCurvePV2012 = {
				24,
				0,
				230,
				255,
			},
			ToneCurvePV2012Blue = {
				0,
				0,
				255,
				255,
			},
			ToneCurvePV2012Green = {
				0,
				0,
				255,
				255,
			},
			ToneCurvePV2012Red = {
				0,
				0,
				255,
				255,
			},
		},
		uuid = "00AE33FE-4EFB-47F3-A958-C7125E9E6B2D",
	},
	version = 0,
}
