Ben's - 03 - Cool Curves/33   - Violet + Neutral Punch.lrtemplate
s = {
	id = "0B656748-D744-4CD9-B93A-2B7E8CF266F0",
	internalName = "33   - Violet + Neutral Punch",
	title = "33   - Violet + Neutral Punch",
	type = "Develop",
	value = {
		settings = {
			EnableSplitToning = true,
			ParametricDarks = 0,
			ParametricHighlightSplit = 75,
			ParametricHighlights = 0,
			ParametricLights = 0,
			ParametricMidtoneSplit = 50,
			ParametricShadowSplit = 25,
			ParametricShadows = 0,
			ProcessVersion = "6.7",
			SplitToningBalance = 0,
			SplitToningHighlightHue = 276,
			SplitToningHighlightSaturation = 2,
			SplitToningShadowHue = 274,
			SplitToningShadowSaturation = 32,
			ToneCurveName2012 = "Custom",
			ToneCurvePV2012 = {
				23,
				0,
				229,
				255,
			},
			ToneCurvePV2012Blue = {
				0,
				0,
				255,
				255,
			},
			ToneCurvePV2012Green = {
				0,
				0,
				255,
				255,
			},
			ToneCurvePV2012Red = {
				0,
				0,
				255,
				255,
			},
		},
		uuid = "999676D6-AA5E-477D-86A0-B43F8B8E8400",
	},
	version = 0,
}
