Ben's - 03 - Cool Curves/41   - Teal + Dark Wash.lrtemplate
s = {
	id = "CF9CD3F3-B645-4D11-B3F0-7F08BD5E87D1",
	internalName = "41   - Teal + Dark Wash",
	title = "41   - Teal + Dark Wash",
	type = "Develop",
	value = {
		settings = {
			EnableSplitToning = true,
			ParametricDarks = 0,
			ParametricHighlightSplit = 75,
			ParametricHighlights = 0,
			ParametricLights = 0,
			ParametricMidtoneSplit = 50,
			ParametricShadowSplit = 25,
			ParametricShadows = 0,
			ProcessVersion = "6.7",
			SplitToningBalance = 0,
			SplitToningHighlightHue = 197,
			SplitToningHighlightSaturation = 2,
			SplitToningShadowHue = 197,
			SplitToningShadowSaturation = 32,
			ToneCurveName2012 = "Custom",
			ToneCurvePV2012 = {
				0,
				0,
				255,
				226,
			},
			ToneCurvePV2012Blue = {
				0,
				0,
				255,
				255,
			},
			ToneCurvePV2012Green = {
				0,
				0,
				255,
				255,
			},
			ToneCurvePV2012Red = {
				0,
				0,
				255,
				255,
			},
		},
		uuid = "800AE6B6-1241-4102-B957-96B70E4796B0",
	},
	version = 0,
}
